svgs/sharp-light/computer-mouse.svg

<svg xmlns="http://www.w3.org/2000/svg" viewBox="0 0 384 512"><!--! Font Awesome Pro 6.4.2 by @fontawesome - https://fontawesome.com License - https://fontawesome.com/license (Commercial License) Copyright 2023 Fonticons, Inc. --><path d="M192 224H32V352c0 70.7 57.3 128 128 128h64c70.7 0 128-57.3 128-128V224H192zm192-32v16 16V352c0 88.4-71.6 160-160 160H160C71.6 512 0 440.4 0 352V224 208 192 32 0H32 176h16 16H352h32V32 192zM352 32H208V192H352V32zM176 32H32V192H176V32z"/></svg>

<svg xmlns="http://www.w3.org/2000/svg" viewBox="0 0 384 512"><!--! Font Awesome Pro 6.6.0 by @fontawesome - https://fontawesome.com License - https://fontawesome.com/license (Commercial License) Copyright 2024 Fonticons, Inc. --><path d="M192 224L32 224l0 128c0 70.7 57.3 128 128 128l64 0c70.7 0 128-57.3 128-128l0-128-160 0zm192-32l0 16 0 16 0 128c0 88.4-71.6 160-160 160l-64 0C71.6 512 0 440.4 0 352L0 224l0-16 0-16L0 32 0 0 32 0 176 0l16 0 16 0L352 0l32 0 0 32 0 160zM352 32L208 32l0 160 144 0 0-160zM176 32L32 32l0 160 144 0 0-160z"/></svg>
